X: 41099
T: Trip To Sebasta
R: hornpipe
M: 4/4
K: Dminor
|:"Dm"DFAF "Edim"EGBG|"F"c2BA "C"G3G|"Dm"ABAG F2 D2|"C"E2F2 G3G|
"Dm"DFAF "Edim"EGBG|"F"c2BA "C"G3G|"Dm"ABAG F2 D2|"C"E2F2 "Dm"D4:|
|:"Gm"d2cB "F"c2BA|"Gm"B2AG "F"A3A|"Dm"ABAG F2 D2|"C"E2F2 G3G|
"Gm"d2cB "F"c2BA|"Gm"B2AG "F"A3A|"Dm"ABAG F2 D2|"C"E2F2 "Dm"D4:|

